icons/bun/bun-original.svg

<svg xmlns="http://www.w3.org/2000/svg" viewBox="0 0 128 128">
    <g>
        <path d="M113.744 41.9989C113.488 41.7366 113.216 41.4743 112.944 41.2274C112.672 40.9806 112.416 40.7029 112.144 40.456C111.872 40.2092 111.616 39.9314 111.344 39.6846C111.072 39.4377 110.816 39.16 110.544 38.9132C110.272 38.6663 110.016 38.3886 109.744 38.1417C109.472 37.8949 109.216 37.6172 108.944 37.3703C108.672 37.1234 108.416 36.8457 108.144 36.5989C116.08 44.1199 120.627 54.3514 120.8 65.08C120.8 90.6452 93.888 111.443 60.8 111.443C42.272 111.443 25.696 104.917 14.672 94.6875L15.472 95.4589L16.272 96.2303L17.072 97.0017L17.872 97.7732L18.672 98.5446L19.472 99.316L20.272 100.087C31.28 110.749 48.224 117.614 67.2 117.614C100.288 117.614 127.2 96.8166 127.2 71.3286C127.2 60.436 122.336 50.1143 113.744 41.9989Z" fill="black"/>
        <path d="M116.8 65.08C116.8 88.5468 91.728 107.57 60.8 107.57C29.872 107.57 4.8 88.5468 4.8 65.08C4.8 50.5308 14.4 37.6788 29.152 30.0571C43.904 22.4354 53.088 14.6285 60.8 14.6285C68.512 14.6285 75.104 21.0005 92.448 30.0571C107.2 37.6788 116.8 50.5308 116.8 65.08Z" fill="#FBF0DF"/>
        <path d="M116.8 65.08C116.792 62.0654 116.362 59.0656 115.52 56.1623C111.152 107.539 46.16 110.008 20.608 94.6412C32.0944 103.226 46.2689 107.786 60.8 107.57C91.68 107.57 116.8 88.516 116.8 65.08Z" fill="#F6DECE"/>
        <path d="M39.248 27.2337C46.4 23.0988 55.904 15.3383 65.248 15.3228C63.8105 14.8748 62.3106 14.6407 60.8 14.6285C56.928 14.6285 52.8 16.5571 47.6 19.4577C45.792 20.476 43.92 21.6023 41.936 22.7748C38.208 24.9965 33.936 27.5114 29.136 30.0263C13.904 37.972 4.8 51.0708 4.8 65.08C4.8 65.6971 4.8 66.3143 4.8 66.916C14.496 33.8834 32.112 31.3685 39.248 27.2337Z" fill="#FFFEFC"/>
        <path fill-rule="evenodd" clip-rule="evenodd" d="M56.192 18.532C56.2144 22.175 55.4212 25.7798 53.8666 29.1002C52.312 32.4206 50.0326 35.3783 47.184 37.7714C46.736 38.1572 47.088 38.8977 47.664 38.6817C53.056 36.6606 60.336 30.6126 57.264 18.4086C57.136 17.7143 56.192 17.8994 56.192 18.532ZM59.824 18.532C61.7817 21.6122 63.0255 25.0642 63.4702 28.6514C63.9148 32.2385 63.5497 35.8759 62.4 39.3143C62.208 39.8543 62.896 40.3172 63.28 39.8697C66.784 35.5497 69.84 26.9714 60.688 17.7143C60.224 17.3132 59.504 17.9303 59.824 18.4703V18.532ZM64.24 18.2697C67.3058 20.3627 69.8705 23.0653 71.7612 26.1952C73.6519 29.3252 74.8245 32.8097 75.2 36.4137C75.1838 36.5436 75.2201 36.6745 75.3013 36.7793C75.3825 36.8841 75.5024 36.9547 75.6361 36.9765C75.7699 36.9984 75.9072 36.9697 76.0196 36.8965C76.1321 36.8233 76.211 36.7112 76.24 36.5834C77.712 31.1989 76.88 22.0189 64.768 17.2514C64.128 17.0046 63.712 17.8377 64.24 18.208V18.2697ZM34.704 34.3154C38.3508 33.2649 41.7273 31.4854 44.6136 29.093C47.4999 26.7005 49.8313 23.7487 51.456 20.4297C51.744 19.8743 52.656 20.0903 52.512 20.7074C49.744 33.0503 40.48 35.6269 34.72 35.2874C34.112 35.3029 34.128 34.4852 34.704 34.3154Z" fill="#CCBEA7"/>
        <path d="M60.8 111.443C27.712 111.443 0.800003 90.6451 0.800003 65.08C0.800003 49.6514 10.688 35.2566 27.248 26.632C32.048 24.1634 36.16 21.6794 39.824 19.504C41.84 18.3006 43.744 17.1743 45.584 16.1251C51.2 12.916 56 10.7714 60.8 10.7714C65.6 10.7714 69.792 12.6229 75.04 15.616C76.64 16.4954 78.24 17.452 79.952 18.5011C83.936 20.8771 88.432 23.5617 94.352 26.632C110.912 35.2566 120.8 49.636 120.8 65.08C120.8 90.6451 93.888 111.443 60.8 111.443ZM60.8 14.6286C56.928 14.6286 52.8 16.5571 47.6 19.4577C45.792 20.476 43.92 21.6023 41.936 22.7749C38.208 24.9966 33.936 27.5114 29.136 30.0263C13.904 37.972 4.8 51.0709 4.8 65.08C4.8 88.516 29.92 107.586 60.8 107.586C91.68 107.586 116.8 88.516 116.8 65.08C116.8 51.0709 107.696 37.972 92.448 30.0571C86.4 26.9714 81.68 24.0709 77.856 21.7874C76.112 20.7537 74.512 19.7971 73.056 18.9486C68.208 16.1714 64.672 14.6286 60.8 14.6286Z" fill="black"/>
        <path d="M72.08 76.3429C71.3612 79.1816 69.7251 81.7265 67.408 83.6097C65.6684 85.2358 63.4164 86.2565 61.008 86.5103C58.5272 86.2967 56.1962 85.2735 54.4 83.6097C52.1066 81.7176 50.4935 79.1737 49.792 76.3429C49.7688 76.1748 49.7857 76.0039 49.8416 75.8431C49.8974 75.6823 49.9907 75.536 50.1143 75.4154C50.2378 75.2948 50.3884 75.203 50.5544 75.1472C50.7204 75.0913 50.8974 75.0728 51.072 75.0932H70.816C70.9893 75.0754 71.1646 75.0958 71.3285 75.1527C71.4925 75.2097 71.6409 75.3019 71.7626 75.4222C71.8843 75.5425 71.9761 75.6879 72.031 75.8473C72.086 76.0068 72.1028 76.1762 72.08 76.3429V76.3429Z" fill="#B71422"/>
        <path d="M54.4 83.7332C56.1926 85.3979 58.5151 86.4307 60.992 86.6646C63.4632 86.4274 65.7796 85.3948 67.568 83.7332C68.1401 83.219 68.6747 82.6674 69.168 82.0823C68.1824 81.0041 66.9784 80.1317 65.6301 79.5187C64.2818 78.9058 62.8178 78.5654 61.328 78.5183C59.7339 78.5547 58.1729 78.9641 56.7793 79.7113C55.3857 80.4585 54.2013 81.521 53.328 82.8075C53.696 83.1315 54.016 83.44 54.4 83.7332Z" fill="#FF6164"/>
        <path d="M54.656 82.5143C55.4492 81.5256 56.4646 80.7231 57.6258 80.1673C58.787 79.6115 60.0637 79.3167 61.36 79.3052C63.7561 79.3733 66.0391 80.3034 67.76 81.9126C68.128 81.5269 68.48 81.1257 68.816 80.7246C66.7805 78.8553 64.0905 77.7924 61.28 77.7469C59.778 77.7594 58.2975 78.0923 56.9448 78.7219C55.5921 79.3514 54.4006 80.2619 53.456 81.388C53.8343 81.7844 54.2349 82.1604 54.656 82.5143V82.5143Z" fill="black"/>
        <path d="M60.944 87.436C58.2778 87.2107 55.7688 86.1234 53.824 84.3503C51.3473 82.3303 49.604 79.6007 48.848 76.5589C48.7938 76.2881 48.803 76.009 48.875 75.742C48.9469 75.4751 49.0799 75.2271 49.264 75.016C49.4833 74.7607 49.7602 74.5571 50.0735 74.4207C50.3869 74.2843 50.7284 74.2188 51.072 74.2291H70.816C71.1591 74.2222 71.4995 74.2892 71.8123 74.4253C72.1251 74.5615 72.4024 74.7633 72.624 75.016C72.8064 75.2278 72.937 75.4764 73.0062 75.7435C73.0755 76.0106 73.0815 76.2892 73.024 76.5589C72.268 79.6007 70.5247 82.3303 68.048 84.3503C66.1074 86.1202 63.6046 87.2073 60.944 87.436ZM51.072 76.0189C50.816 76.0189 50.752 76.1269 50.736 76.1577C51.4123 78.7955 52.9423 81.157 55.104 82.9C56.6847 84.4017 58.7399 85.3519 60.944 85.6C63.1424 85.3547 65.1953 84.4165 66.784 82.9309C68.939 81.1849 70.4629 78.8239 71.136 76.1886C71.1011 76.1392 71.0528 76.1002 70.9963 76.0757C70.9398 76.0512 70.8774 76.0422 70.816 76.0497L51.072 76.0189Z" fill="black"/>
        <path d="M85.152 77.2994C90.3214 77.2994 94.512 74.9232 94.512 71.992C94.512 69.0608 90.3214 66.6846 85.152 66.6846C79.9826 66.6846 75.792 69.0608 75.792 71.992C75.792 74.9232 79.9826 77.2994 85.152 77.2994Z" fill="#FEBBD0"/>
        <path d="M36.72 77.2994C41.8894 77.2994 46.08 74.9232 46.08 71.992C46.08 69.0608 41.8894 66.6846 36.72 66.6846C31.5506 66.6846 27.36 69.0608 27.36 71.992C27.36 74.9232 31.5506 77.2994 36.72 77.2994Z" fill="#FEBBD0"/>
        <path fill-rule="evenodd" clip-rule="evenodd" d="M41.12 69.8629C42.8643 69.8659 44.5704 69.3699 46.0223 68.4377C47.4741 67.5054 48.6066 66.1788 49.2763 64.6257C49.946 63.0726 50.1229 61.3628 49.7845 59.7127C49.4462 58.0626 48.6078 56.5464 47.3755 55.356C46.1432 54.1655 44.5724 53.3543 42.8618 53.0251C41.1512 52.6958 39.3778 52.8633 37.766 53.5062C36.1541 54.1492 34.7763 55.2388 33.8069 56.6371C32.8375 58.0355 32.32 59.6797 32.32 61.3617C32.32 63.6137 33.2466 65.7737 34.8965 67.3675C36.5463 68.9613 38.7846 69.8588 41.12 69.8629V69.8629ZM80.752 69.8629C82.4983 69.8751 84.209 69.3869 85.6672 68.4603C87.1254 67.5336 88.2653 66.2102 88.9424 64.658C89.6195 63.1057 89.8032 61.3945 89.4703 59.7414C89.1374 58.0883 88.3029 56.5678 87.0725 55.3727C85.8422 54.1776 84.2714 53.3618 82.5596 53.0287C80.8477 52.6957 79.0719 52.8604 77.4572 53.502C75.8426 54.1435 74.4619 55.2331 73.4903 56.6324C72.5188 58.0317 72 59.6777 72 61.3617C71.9957 63.607 72.9144 65.7623 74.5548 67.3557C76.1952 68.9491 78.4236 69.8506 80.752 69.8629V69.8629Z" fill="black"/>
        <path fill-rule="evenodd" clip-rule="evenodd" d="M38.4 61.9017C39.0557 61.9048 39.6976 61.7201 40.2444 61.371C40.7911 61.0219 41.2181 60.5242 41.4713 59.9409C41.7244 59.3576 41.7923 58.715 41.6663 58.0945C41.5403 57.4739 41.2262 56.9034 40.7636 56.4552C40.3011 56.007 39.7109 55.7013 39.068 55.5768C38.4251 55.4524 37.7584 55.5147 37.1523 55.756C36.5462 55.9972 36.0279 56.4066 35.6633 56.9321C35.2987 57.4576 35.104 58.0757 35.104 58.708C35.104 59.5524 35.4507 60.3624 36.0684 60.9609C36.6861 61.5594 37.5244 61.8977 38.4 61.9017ZM78.032 61.9017C78.6877 61.9048 79.3296 61.7201 79.8764 61.371C80.4231 61.0219 80.8501 60.5242 81.1033 59.9409C81.3564 59.3576 81.4243 58.715 81.2983 58.0945C81.1723 57.4739 80.8581 56.9034 80.3956 56.4552C79.9331 56.007 79.3429 55.7013 78.7 55.5768C78.0572 55.4524 77.3904 55.5147 76.7843 55.756C76.1782 55.9972 75.6599 56.4066 75.2953 56.9321C74.9307 57.4576 74.736 58.0757 74.736 58.708C74.7359 59.5471 75.0783 60.3525 75.689 60.9501C76.2998 61.5477 77.1299 61.8896 78 61.9017H78.032Z" fill="white"/>
    </g>
</svg>

<svg xmlns="http://www.w3.org/2000/svg" viewBox="0 0 128 128"><path d="M113.744 41.999a18.558 18.558 0 0 0-.8-.772c-.272-.246-.528-.524-.8-.771s-.528-.525-.8-.771c-.272-.247-.528-.525-.8-.772s-.528-.524-.8-.771-.528-.525-.8-.772-.528-.524-.8-.771c7.936 7.52 12.483 17.752 12.656 28.481 0 25.565-26.912 46.363-60 46.363-18.528 0-35.104-6.526-46.128-16.756l.8.772.8.771.8.772.8.771.8.772.8.771.8.771c11.008 10.662 27.952 17.527 46.928 17.527 33.088 0 60-20.797 60-46.285 0-10.893-4.864-21.215-13.456-29.33z"/><path fill="#fbf0df" d="M116.8 65.08c0 23.467-25.072 42.49-56 42.49s-56-19.023-56-42.49c0-14.55 9.6-27.401 24.352-35.023C43.904 22.435 53.088 14.628 60.8 14.628S75.104 21 92.448 30.058C107.2 37.677 116.8 50.53 116.8 65.08Z"/><path fill="#f6dece" d="M116.8 65.08a32.314 32.314 0 0 0-1.28-8.918c-4.368 51.377-69.36 53.846-94.912 38.48 11.486 8.584 25.66 13.144 40.192 12.928 30.88 0 56-19.054 56-42.49z"/><path fill="#fffefc" d="M39.248 27.234c7.152-4.135 16.656-11.896 26-11.911a15.372 15.372 0 0 0-4.448-.695c-3.872 0-8 1.93-13.2 4.83-1.808 1.018-3.68 2.144-5.664 3.317-3.728 2.222-8 4.736-12.8 7.251C13.904 37.972 4.8 51.071 4.8 65.08v1.836c9.696-33.033 27.312-35.547 34.448-39.682z"/><path fill="#ccbea7" d="M56.192 18.532A24.553 24.553 0 0 1 53.867 29.1a25.407 25.407 0 0 1-6.683 8.671c-.448.386-.096 1.127.48.91 5.392-2.02 12.672-8.068 9.6-20.272-.128-.695-1.072-.51-1.072.123zm3.632 0a24.474 24.474 0 0 1 3.646 10.12c.445 3.587.08 7.224-1.07 10.662-.192.54.496 1.003.88.556 3.504-4.32 6.56-12.899-2.592-22.156-.464-.4-1.184.216-.864.756zm4.416-.262a25.702 25.702 0 0 1 7.521 7.925A24.71 24.71 0 0 1 75.2 36.414c-.016.13.02.26.101.365a.543.543 0 0 0 .718.117.509.509 0 0 0 .221-.313c1.472-5.384.64-14.564-11.472-19.332-.64-.246-1.056.587-.528.957zM34.704 34.315a27.418 27.418 0 0 0 9.91-5.222 26.262 26.262 0 0 0 6.842-8.663c.288-.556 1.2-.34 1.056.277-2.768 12.343-12.032 14.92-17.792 14.58-.608.016-.592-.802-.016-.972z"/><path d="M60.8 111.443c-33.088 0-60-20.798-60-46.363 0-15.429 9.888-29.823 26.448-38.448 4.8-2.469 8.912-4.953 12.576-7.128 2.016-1.203 3.92-2.33 5.76-3.379C51.2 12.916 56 10.771 60.8 10.771c4.8 0 8.992 1.852 14.24 4.845 1.6.88 3.2 1.836 4.912 2.885 3.984 2.376 8.48 5.06 14.4 8.131 16.56 8.625 26.448 23.004 26.448 38.448 0 25.565-26.912 46.363-60 46.363zm0-96.814c-3.872 0-8 1.928-13.2 4.829-1.808 1.018-3.68 2.144-5.664 3.317-3.728 2.222-8 4.736-12.8 7.251C13.904 37.972 4.8 51.071 4.8 65.08c0 23.436 25.12 42.506 56 42.506s56-19.07 56-42.506c0-14.01-9.104-27.108-24.352-35.023-6.048-3.086-10.768-5.986-14.592-8.27-1.744-1.033-3.344-1.99-4.8-2.838-4.848-2.778-8.384-4.32-12.256-4.32z"/><path fill="#b71422" d="M72.08 76.343c-.719 2.839-2.355 5.383-4.672 7.267a11.07 11.07 0 0 1-6.4 2.9 11.13 11.13 0 0 1-6.608-2.9c-2.293-1.892-3.906-4.436-4.608-7.267a1.073 1.073 0 0 1 .05-.5 1.11 1.11 0 0 1 .272-.428 1.19 1.19 0 0 1 .958-.322h19.744a1.185 1.185 0 0 1 .947.33 1.073 1.073 0 0 1 .317.92z"/><path fill="#ff6164" d="M54.4 83.733a11.24 11.24 0 0 0 6.592 2.932 11.239 11.239 0 0 0 6.576-2.932 16.652 16.652 0 0 0 1.6-1.65 10.904 10.904 0 0 0-3.538-2.564 11.26 11.26 0 0 0-4.302-1 10.121 10.121 0 0 0-4.549 1.192 9.71 9.71 0 0 0-3.451 3.097c.368.323.688.632 1.072.925z"/><path d="M54.656 82.514a8.518 8.518 0 0 1 2.97-2.347 8.836 8.836 0 0 1 3.734-.862 9.78 9.78 0 0 1 6.4 2.608c.368-.386.72-.787 1.056-1.188-2.035-1.87-4.726-2.933-7.536-2.978a10.487 10.487 0 0 0-4.335.975 10.125 10.125 0 0 0-3.489 2.666c.378.396.779.772 1.2 1.126z"/><path d="M60.944 87.436a12.078 12.078 0 0 1-7.12-3.086c-2.477-2.02-4.22-4.75-4.976-7.791-.054-.27-.045-.55.027-.817a1.83 1.83 0 0 1 .389-.726 2.25 2.25 0 0 1 .81-.595 2.32 2.32 0 0 1 .998-.192h19.744c.343-.007.683.06.996.196a2.3 2.3 0 0 1 .812.591c.182.212.313.46.382.728.07.267.076.545.018.815-.756 3.042-2.5 5.771-4.976 7.791a12.078 12.078 0 0 1-7.104 3.086zm-9.872-11.417c-.256 0-.32.108-.336.139.676 2.638 2.206 4.999 4.368 6.742a10.122 10.122 0 0 0 5.84 2.7 10.207 10.207 0 0 0 5.84-2.67c2.155-1.745 3.679-4.106 4.352-6.741a.333.333 0 0 0-.14-.113.348.348 0 0 0-.18-.026z"/><path fill="#febbd0" d="M85.152 77.3c5.17 0 9.36-2.377 9.36-5.308s-4.19-5.307-9.36-5.307c-5.17 0-9.36 2.376-9.36 5.307 0 2.931 4.19 5.307 9.36 5.307zm-48.432 0c5.17 0 9.36-2.377 9.36-5.308s-4.19-5.307-9.36-5.307c-5.17 0-9.36 2.376-9.36 5.307 0 2.931 4.19 5.307 9.36 5.307z"/><path d="M41.12 69.863a9.052 9.052 0 0 0 4.902-1.425 8.578 8.578 0 0 0 3.254-3.812 8.22 8.22 0 0 0 .508-4.913 8.41 8.41 0 0 0-2.408-4.357 8.92 8.92 0 0 0-4.514-2.33 9.12 9.12 0 0 0-5.096.48 8.755 8.755 0 0 0-3.96 3.131 8.287 8.287 0 0 0-1.486 4.725c0 2.252.927 4.412 2.577 6.005 1.65 1.594 3.888 2.492 6.223 2.496zm39.632 0a9.054 9.054 0 0 0 4.915-1.403 8.582 8.582 0 0 0 3.275-3.802 8.22 8.22 0 0 0 .528-4.917 8.408 8.408 0 0 0-2.398-4.368 8.92 8.92 0 0 0-4.512-2.344 9.12 9.12 0 0 0-5.103.473 8.756 8.756 0 0 0-3.967 3.13 8.287 8.287 0 0 0-1.49 4.73c-.004 2.245.914 4.4 2.555 5.994 1.64 1.593 3.869 2.495 6.197 2.507z"/><path fill="#fff" d="M38.4 61.902a3.4 3.4 0 0 0 1.844-.531c.547-.35.974-.847 1.227-1.43a3.088 3.088 0 0 0 .195-1.847 3.16 3.16 0 0 0-.902-1.639 3.351 3.351 0 0 0-1.696-.878 3.426 3.426 0 0 0-1.916.179 3.29 3.29 0 0 0-1.489 1.176 3.113 3.113 0 0 0-.559 1.776c0 .844.347 1.654.964 2.253a3.374 3.374 0 0 0 2.332.94zm39.632 0a3.4 3.4 0 0 0 1.844-.531c.547-.35.974-.847 1.227-1.43a3.088 3.088 0 0 0 .195-1.847 3.16 3.16 0 0 0-.902-1.639 3.351 3.351 0 0 0-1.696-.878 3.426 3.426 0 0 0-1.916.179 3.29 3.29 0 0 0-1.489 1.176 3.113 3.113 0 0 0-.559 1.776c0 .84.342 1.644.953 2.242.61.598 1.44.94 2.311.952z"/></svg>
